X:1
T:Title
%%score [ ( 1 2 ) ( 3 4 ) ]
L:1/8
Q:1/4=96
M:4/4
K:Bb
V:1 treble nm="Midi_74"
V:2 treble 
V:3 bass nm="Midi_69"
V:4 bass 
V:1
"^St Drostane (L. M.)""^John Bacchus Dykes\n(1823-76)""^H. H. Milman\n(1791-1868)""^Ride on, ride on in majesty!" F2 | %1
 B2 F2 B2 c2 | d3 c B2 F2 | e2 d2 c2 c2 | c3 =E[Q:1/4=48] !fermata!F2 ||[Q:1/4=96] F2 | %6
 F2 F2 E2 G2 | G2 G2 F2 A2 | B2 F2 G2 D2 | F3 E[Q:1/4=48] !fermata!D2 |] %10
V:2
 F2 | B2 F2 E2 E2 | D3 E D2 F2 | F2 F2 F2 F2 | =E3 C C2 || C2 | B,2 B,2 B,2 B,2 | C2 C2 C2 F2 | %8
w: Ride|on, ride * *|ma- jes- ty! Hark,|all the tribes *|san- na cry.||||
w: Ride|on, ride * *|ma- jes- ty! In|low- ly pomp *|on to die:||||
w: Ride|on, ride * *|ma- jes- ty! The|wing- ed * *|of the sky||||
w: Ride|on, ride * *|ma- jes- ty! The|last and * *|strife is nigh:||||
w: Ride|on, ride * *|ma- jes- ty! In|low- ly pomp *|on to die;||||
 (FE) (DC) B,2 D2 | D2 C2 B,2 |] %10
w: palms * and * scat- tered|* * strowed.|
w: cap\- * tive * death and|* * sin.|
w: see * the~~ap\- * proach- ing|* * fice.|
w: waits * His * own a-|* * Son.|
w: take, * O * God, Thy|power, * reign.|
V:3
 F,2 | B,2 B,2 (G,F,) (G,A,) | B,3 F, F,2 B,2 | C2 B,2 A,2 (G,A,) | B,3 G, A,2 || A,2 | %6
w: |* * on * in *||* * * ho\- *|||
w: |* * on * in *||* * * ride *|||
w: |* * on * in *||* * squad- rons *|||
w: |* * on * in *||* * fierc- est *|||
w: |* * on * in *||* * * ride *|||
 F,2 _A,2 G,2 G,2 | G,2 B,2 A,2 C2 | B,3 _A, G,2 B,2 | B,2 (=A,F,) F,2 |] %10
w: |||gar- ments * *|
w: |||con- quered * *|
w: |||sac- ri\- * *|
w: |||noin- ted * *|
w: |||* and * *|
V:4
 F,2 | B,2 D,2 E,2 C,2 | B,,3 B,, B,,2 D,2 | A,,2 B,,2 C,2 C,2 | C,3 C, !fermata!F,2 || F,2 | %6
w: ||||san- na cry.|O|
w: ||||on to die:|O|
w: ||||of the sky|Look|
w: ||||strife is nigh:|The|
w: ||||on to die;|Bow|
 D,2 D,2 E,2 E,2 | =E,2 E,2 F,2 (F,_E,) | (D,C,) B,,2 E,2 G,,2 | F,,2 F,,2 !fermata!B,,2 |] %10
w: Sa- viour meek, pur-|sue Thy road with *|||
w: Christ, Thy tri- umphs|now be- gin o'er *|||
w: down with sad and|won- dering eyes to *|||
w: Fa- ther on His|sap- phire throne a\- *|||
w: Thy meek head to|mor- tal pain, then *|||

